usr/share/icons/biglinux-icons-material/scalable/apps/preferences-plugin.svg

<svg xmlns="http://www.w3.org/2000/svg" xmlns:xlink="http://www.w3.org/1999/xlink" xml:space="preserve" width="24" height="24" viewBox="0 0 6.35 6.35"><defs><linearGradient id="a" x1="12" x2="12" y1="2.958" y2="21.042" gradientTransform="matrix(0 -.08333 -.08333 0 2 1)" gradientUnits="userSpaceOnUse" spreadMethod="pad"><stop offset="0" style="stop-opacity:1;stop-color:#fff"/><stop offset="1" style="stop-opacity:1;stop-color:#d8d8d8"/></linearGradient><linearGradient id="b" x1="12" x2="12" y1="2.958" y2="21.042" gradientTransform="matrix(0 .08333 -.08333 0 2 17)" gradientUnits="userSpaceOnUse" spreadMethod="pad"><stop offset="0" style="stop-opacity:1;stop-color:#accd96"/><stop offset="1" style="stop-opacity:1;stop-color:#5a6a4d"/></linearGradient><linearGradient xlink:href="#a" id="d" x1="12" x2="12" y1="2.958" y2="21.042" gradientTransform="matrix(0 -.08333 -.08333 0 2 1)" gradientUnits="userSpaceOnUse" spreadMethod="pad"/><radialGradient id="c" cx="0" cy="0" r="1" fx="0" fy="0" gradientTransform="matrix(0 8.25 -8.25 0 9 .75)" gradientUnits="userSpaceOnUse" spreadMethod="pad"><stop offset="0" style="stop-opacity:1;stop-color:#bee9a6"/><stop offset="1" style="stop-opacity:1;stop-color:#88ba65"/></radialGradient></defs><path d="M7.195.836c.09 0 .176-.012.258-.035a23.86 23.86 0 0 1 3.231.008 10.26 10.26 0 0 1 2.836.636c1.519.625 2.558 1.711 3.121 3.254.316.93.507 1.887.566 2.867a21.227 21.227 0 0 1-.086 3.696 8.976 8.976 0 0 1-.672 2.488c-.637 1.383-1.672 2.336-3.101 2.859a11.693 11.693 0 0 1-3.575.618 15.998 15.998 0 0 1-4.089-.309c-2.481-.551-4.016-2.066-4.594-4.543a14.244 14.244 0 0 1-.336-3.383c-.027-1.215.101-2.41.387-3.59.609-2.312 2.078-3.746 4.406-4.3A10.27 10.27 0 0 1 7.195.836Z" style="fill:url(#c);fill-rule:evenodd;stroke:none" transform="scale(.35277)"/><path d="m13.598 9.387.015.015.02.016 1.183.898a.17.17 0 0 1 .047.223l-1.609 2.777a.166.166 0 0 1-.215.075l-1.293-.547c-.121-.051-.359-.114-.574.051a.668.668 0 0 0-.254.449l-.168 1.379a.173.173 0 0 1-.172.148H7.422a.173.173 0 0 1-.172-.148l-.172-1.391a.575.575 0 0 0-.277-.453c-.004-.004-.012-.008-.02-.012a.659.659 0 0 0-.574-.015l-1.262.539a.176.176 0 0 1-.215-.075l-1.593-2.777a.175.175 0 0 1 .043-.223l1.129-.855a.496.496 0 0 0 .207-.391v-.14a.496.496 0 0 0-.207-.391l-1.125-.855a.17.17 0 0 1-.047-.223L4.73 4.707a.176.176 0 0 1 .215-.074l1.317.543a.603.603 0 0 0 .543-.031.612.612 0 0 0 .273-.454l.172-1.414a.173.173 0 0 1 .172-.148h3.156c.086 0 .16.062.168.148l.176 1.418c.012.106.062.348.301.461l.019.012a.693.693 0 0 0 .547-.004l1.266-.527a.17.17 0 0 1 .215.07l1.593 2.754a.17.17 0 0 1-.047.223l-1.125.855a.496.496 0 0 0-.207.391v.066c0 .004-.004.012-.004.02a.424.424 0 0 0 .118.371zm-4.641 2.004c.656 0 1.227-.235 1.691-.7.465-.464.7-1.035.7-1.691 0-.656-.235-1.227-.7-1.691a2.314 2.314 0 0 0-1.691-.7 2.32 2.32 0 0 0-1.68.7A2.297 2.297 0 0 0 6.566 9c0 .656.239 1.227.711 1.691a2.32 2.32 0 0 0 1.68.7z" style="fill:url(#d);fill-opacity:1;fill-rule:nonzero;stroke:url(#linearGradient22565);stroke-width:.6875;stroke-linecap:butt;stroke-linejoin:miter;stroke-miterlimit:4;stroke-dasharray:none;stroke-opacity:1" transform="scale(.35277)"/></svg>

<?xml version="1.0" encoding="UTF-8" standalone="no"?>
<svg
   width="24"
   height="24"
   viewBox="0 0 6.349875 6.349875"
   version="1.1"
   id="svg22112"
   sodipodi:docname="preferences-plugin.svg"
   xml:space="preserve"
   inkscape:version="1.2.2 (b0a8486541, 2022-12-01)"
   inkscape:export-filename="preferences-plugin.pdf"
   inkscape:export-xdpi="96"
   inkscape:export-ydpi="96"
   xmlns:inkscape="http://www.inkscape.org/namespaces/inkscape"
   xmlns:sodipodi="http://sodipodi.sourceforge.net/DTD/sodipodi-0.dtd"
   xmlns:xlink="http://www.w3.org/1999/xlink"
   xmlns="http://www.w3.org/2000/svg"
   xmlns:svg="http://www.w3.org/2000/svg"><defs
     id="defs22116"><radialGradient
       id="paint0_radial_1_42"
       cx="0"
       cy="0"
       r="1"
       gradientUnits="userSpaceOnUse"
       gradientTransform="matrix(0,3.1749374,-3.1749374,0,-6.9706422,4.9899531)"><stop
         stop-color="#777777"
         id="stop21566"
         offset="0"
         style="stop-color:#bee9a6;stop-opacity:1;" /><stop
         offset="1"
         stop-color="#444444"
         id="stop21568"
         style="stop-color:#88ba65;stop-opacity:1;" /></radialGradient><linearGradient
       id="paint1_linear_1_42"
       x1="12"
       y1="2.9583299"
       x2="12"
       y2="21.0417"
       gradientUnits="userSpaceOnUse"
       gradientTransform="matrix(0.26457812,0,0,0.26457812,-10.14558,4.9899531)"><stop
         stop-color="#FAFAFA"
         id="stop21571"
         offset="0"
         style="stop-color:#ffffff;stop-opacity:1;" /><stop
         offset="1"
         stop-color="#C0C0C0"
         id="stop21573"
         style="stop-color:#d8d8d8;stop-opacity:1;" /></linearGradient><linearGradient
       id="paint2_linear_1_42"
       x1="12"
       y1="2.9583299"
       x2="12"
       y2="21.0417"
       gradientUnits="userSpaceOnUse"
       gradientTransform="matrix(0.26457812,0,0,0.26457812,-10.14558,4.9899531)"><stop
         stop-color="#E1E1E1"
         id="stop21576"
         offset="0"
         style="stop-color:#accd96;stop-opacity:1;" /><stop
         offset="1"
         stop-color="#828282"
         id="stop21578"
         style="stop-color:#5a6a4d;stop-opacity:1;" /></linearGradient><radialGradient
       id="paint0_radial_1_42-5"
       cx="0"
       cy="0"
       r="1"
       gradientUnits="userSpaceOnUse"
       gradientTransform="matrix(0,2.9103596,-2.9103596,0,-2.1166239,0.26457851)"><stop
         stop-color="#777777"
         id="stop21566-3" /><stop
         offset="1"
         stop-color="#444444"
         id="stop21568-5" /></radialGradient><linearGradient
       id="paint1_linear_1_42-6"
       x1="12"
       y1="2.9583299"
       x2="12"
       y2="21.0417"
       gradientUnits="userSpaceOnUse"
       gradientTransform="matrix(0.24252996,0,0,0.24252996,-5.0267907,0.2645758)"><stop
         stop-color="#FAFAFA"
         id="stop21571-2" /><stop
         offset="1"
         stop-color="#C0C0C0"
         id="stop21573-9" /></linearGradient><linearGradient
       id="paint2_linear_1_42-1"
       x1="12"
       y1="2.9583299"
       x2="12"
       y2="21.0417"
       gradientUnits="userSpaceOnUse"
       gradientTransform="matrix(0.24252996,0,0,0.24252996,-5.0267907,0.2645758)"><stop
         stop-color="#E1E1E1"
         id="stop21576-2" /><stop
         offset="1"
         stop-color="#828282"
         id="stop21578-7" /></linearGradient><radialGradient
       fx="0"
       fy="0"
       cx="0"
       cy="0"
       r="1"
       gradientUnits="userSpaceOnUse"
       gradientTransform="matrix(0,8.250008,-8.250008,0,8.999996,0.750002)"
       spreadMethod="pad"
       id="radialGradient22399"><stop
         style="stop-opacity:1;stop-color:#bee9a6"
         offset="0"
         id="stop22395" /><stop
         style="stop-opacity:1;stop-color:#88ba65"
         offset="1"
         id="stop22397" /></radialGradient><linearGradient
       x1="12"
       y1="2.9583299"
       x2="12"
       y2="21.0417"
       gradientUnits="userSpaceOnUse"
       gradientTransform="matrix(0,-0.08333337,-0.08333337,0,1.9999976,1.0000001)"
       spreadMethod="pad"
       id="linearGradient22411"><stop
         style="stop-opacity:1;stop-color:#ffffff"
         offset="0"
         id="stop22407" /><stop
         style="stop-opacity:1;stop-color:#d8d8d8"
         offset="1"
         id="stop22409" /></linearGradient><linearGradient
       x1="12"
       y1="2.9583299"
       x2="12"
       y2="21.0417"
       gradientUnits="userSpaceOnUse"
       gradientTransform="matrix(0,0.08333337,-0.08333337,0,1.9999976,17)"
       spreadMethod="pad"
       id="linearGradient22417"><stop
         style="stop-opacity:1;stop-color:#accd96"
         offset="0"
         id="stop22413" /><stop
         style="stop-opacity:1;stop-color:#5a6a4d"
         offset="1"
         id="stop22415" /></linearGradient><radialGradient
       fx="0"
       fy="0"
       cx="0"
       cy="0"
       r="1"
       gradientUnits="userSpaceOnUse"
       gradientTransform="matrix(0,8.250008,-8.250008,0,8.999996,0.750002)"
       spreadMethod="pad"
       id="radialGradient22399-5"><stop
         style="stop-opacity:1;stop-color:#bee9a6"
         offset="0"
         id="stop22395-4" /><stop
         style="stop-opacity:1;stop-color:#88ba65"
         offset="1"
         id="stop22397-7" /></radialGradient><linearGradient
       inkscape:collect="always"
       xlink:href="#linearGradient22411"
       id="linearGradient22563"
       gradientUnits="userSpaceOnUse"
       gradientTransform="matrix(0,-0.08333337,-0.08333337,0,1.9999976,1.0000001)"
       x1="12"
       y1="2.9583299"
       x2="12"
       y2="21.0417"
       spreadMethod="pad" /><linearGradient
       inkscape:collect="always"
       xlink:href="#linearGradient22417"
       id="linearGradient22565"
       gradientUnits="userSpaceOnUse"
       gradientTransform="matrix(0,0.08333337,-0.08333337,0,1.9999976,17)"
       x1="12"
       y1="2.9583299"
       x2="12"
       y2="21.0417"
       spreadMethod="pad" /></defs><sodipodi:namedview
     id="namedview22114"
     pagecolor="#ffffff"
     bordercolor="#000000"
     borderopacity="0.25"
     inkscape:showpageshadow="2"
     inkscape:pageopacity="0.0"
     inkscape:pagecheckerboard="0"
     inkscape:deskcolor="#d1d1d1"
     showgrid="false"
     inkscape:zoom="4.8282135"
     inkscape:cx="95.894682"
     inkscape:cy="17.294181"
     inkscape:window-width="2560"
     inkscape:window-height="1000"
     inkscape:window-x="1680"
     inkscape:window-y="0"
     inkscape:window-maximized="1"
     inkscape:current-layer="svg22112" /><g
     id="g22383-3"
     transform="matrix(0.35277082,0,0,0.35277082,-1.1962959e-4,-9.2440026e-6)"><g
       id="g22385-7"><g
         id="g22387-4"><g
           id="g22393-5"><path
             d="m 7.195,0.836 c 0.09,0 0.176,-0.012 0.258,-0.035 1.078,-0.071 2.156,-0.067 3.231,0.008 0.976,0.078 1.921,0.289 2.836,0.636 1.519,0.625 2.558,1.711 3.121,3.254 0.316,0.93 0.507,1.887 0.566,2.867 0.078,1.235 0.051,2.465 -0.086,3.696 -0.105,0.863 -0.328,1.691 -0.672,2.488 -0.637,1.383 -1.672,2.336 -3.101,2.859 C 12.191,17 11,17.207 9.773,17.227 8.398,17.301 7.035,17.195 5.684,16.918 3.203,16.367 1.668,14.852 1.09,12.375 0.844,11.262 0.73,10.133 0.754,8.992 0.727,7.777 0.855,6.582 1.141,5.402 1.75,3.09 3.219,1.656 5.547,1.102 6.09,0.969 6.641,0.879 7.195,0.836 Z"
             style="fill:url(#radialGradient22399-5);fill-rule:evenodd;stroke:none"
             id="path22401-2" /></g></g></g><g
       id="g22403-5"><g
         id="g22405-4"><path
           d="m 13.598,9.387 0.015,0.015 0.02,0.016 1.183,0.898 c 0.071,0.051 0.09,0.149 0.047,0.223 l -1.609,2.777 c -0.043,0.079 -0.133,0.11 -0.215,0.075 l -1.293,-0.547 c -0.121,-0.051 -0.359,-0.114 -0.574,0.051 -0.16,0.121 -0.234,0.296 -0.254,0.449 l -0.168,1.379 c -0.012,0.086 -0.086,0.148 -0.172,0.148 H 7.422 c -0.086,0 -0.16,-0.062 -0.172,-0.148 L 7.078,13.332 C 7.066,13.219 7.016,13 6.801,12.879 6.797,12.875 6.789,12.871 6.781,12.867 6.574,12.754 6.355,12.789 6.207,12.852 l -1.262,0.539 c -0.078,0.031 -0.172,0 -0.215,-0.075 L 3.137,10.539 C 3.094,10.465 3.113,10.371 3.18,10.316 L 4.309,9.461 C 4.363,9.418 4.516,9.293 4.516,9.07 V 8.93 C 4.516,8.707 4.363,8.582 4.309,8.539 L 3.184,7.684 C 3.113,7.633 3.094,7.535 3.137,7.461 L 4.73,4.707 C 4.773,4.633 4.867,4.602 4.945,4.633 L 6.262,5.176 C 6.383,5.223 6.598,5.273 6.805,5.145 6.992,5.027 7.063,4.832 7.078,4.691 L 7.25,3.277 C 7.262,3.191 7.336,3.129 7.422,3.129 h 3.156 c 0.086,0 0.16,0.062 0.168,0.148 l 0.176,1.418 c 0.012,0.106 0.062,0.348 0.301,0.461 0.007,0.004 0.011,0.008 0.019,0.012 0.196,0.086 0.399,0.059 0.547,-0.004 l 1.266,-0.527 c 0.078,-0.035 0.172,-0.004 0.215,0.07 l 1.593,2.754 c 0.043,0.074 0.024,0.172 -0.047,0.223 L 13.691,8.539 C 13.637,8.582 13.484,8.707 13.484,8.93 v 0.066 c 0,0.004 -0.004,0.012 -0.004,0.02 -0.019,0.129 0.012,0.265 0.118,0.371 z m -4.641,2.004 c 0.656,0 1.227,-0.235 1.691,-0.7 0.465,-0.464 0.7,-1.035 0.7,-1.691 0,-0.656 -0.235,-1.227 -0.7,-1.691 -0.464,-0.465 -1.035,-0.7 -1.691,-0.7 -0.648,0 -1.215,0.239 -1.68,0.7 C 6.805,7.773 6.566,8.344 6.566,9 c 0,0.656 0.239,1.227 0.711,1.691 0.465,0.461 1.032,0.7 1.68,0.7 z"
           style="fill:url(#linearGradient22563);fill-opacity:1;fill-rule:nonzero;stroke:url(#linearGradient22565);stroke-width:0.6875;stroke-linecap:butt;stroke-linejoin:miter;stroke-miterlimit:4;stroke-dasharray:none;stroke-opacity:1"
           id="path22419-7" /></g></g></g></svg>
